X:521
T:Mueira (MG 41)
R:Mueira
C:Versin del Gaiteru Veria
S:Msica Tradicional Asturiana, (C) Tello & Tito. Asturies, 2001.
S:http://pagina.de/MusTradAst <telloytito@asturies.org>
A:Asturies
Z:Mtodu de Gaita 41
M:6/8
L:1/8
Q:3/8=88
E:Nivel 4
K:C
c2 B
|~AGE F2 A|GEC EEG|GFE DEF|{A}G2 G c2 B|
|~AGE F2 A|GEC EEG|GFE DED|C2 C {F}EDC|
|: B,CD B,CD|E2 {F}E {F}EDC|B,CD GDA|[1 C2 C EDC :|[2 C2 {G}C CEF|
|GAB cdc|~A2 A cBA|GFE {F}EDE|{F}EDC CEF|
|GAB cdc|~A2 A cBA|GFE {F}EDE|C2 {G}C CEG|
|: c3 ede|c3 GEG|c3 ede|c3 GEG|
|c3 ede|c3 GAB|AAA EFG|AAA EFG|
|AAA EFA|EDC CEA|~D2 B, DB,D|C2 {G}C CEG :|
|c2 G {A}GEG|{B}A2 E {F}EDE|F2 D DB,D|~E2 C CEG|
|c2 G GEG|{B}A2 E EDE|F2 D DB,D|C3 {F}EDC|
|: B,2 D DFD|~E2 C {F}EDC|B,2 D DGE|[1 C2 {G}C {F}EDC :|[2 C2 {G}C CDE|
|: F2 D {E}~DB,~D|G2 C CDE|F2 D {E}~DB,~D|[1 C3 CDE :|[2 C3 GAB|
|: cdc BAB|c3 GAB|cdc BAB|[1 G3 GAB :|[2 G3 cBA|
|GFE {G}EDE|G2 G cBA|GFE {G}EDE|C2 {G}C {F}EDC|
|: B,2 D DFD|~E2 C {F}EDC|B,2 D DGE|[1 C2 {E}C {F}EDC :|[2 C2 {G}C CDE|
|: F2 D {E}DB,D|G2 C CDE|F2 D DB,D|[1 C3 CDE :|[2 C3 {A}GAB|
|: BAB BAB|B3 {A}GAB|BAB BAB|[1 G3 {A}GAB :|[2 G3 cBA|
|GFE {G}EDE|G2 G cBA|GFE {F}EDE|C2 C {F}EDE|
|F2 D DB,D|~E2 C {G}EDE|F2 D DB,D|C2 {G}C CDE|
|: {CF}EDE {CF}EDE|{CF}EDC C(.D.E)|GA{F}E GA{F}E|GA{F}E {CF}EDE|
|F2 D {E}DB,D|G2 C CDE|F2 D {E}DB,D|[1 C2 {G}C CDE :|[2 C2 {G}C CEG|
|c2 G {A}GEG|{B}A2 E {F}EDE|F2 D DB,D|~E2 C CEG|
|c2 G GEG|{B}A2 E EDE|F2 D DB,D|C3 {F}EDC|
|: B,2 D DFD|~E2 C {F}EDC|B,2 D DGE|[1 C2 {G}C {F}EDC :|[2 C2 {G}C CDE|
|: F2 D DB,D|~G2 C CDE|F2 D DB,D|[1 C3 CDE :|[2 C3 z3|
